X:1
T:The Well-Tempered Clavier Book I - XVII
T:BWV 862     (A = 415 Hz)
T:J. S. Bach
%%score { ( 1 3 ) | ( 2 4 ) }
L:1/8
M:3/4
K:Ab
V:1 treble nm="Harp"
V:3 treble 
V:2 bass 
V:4 bass 
V:1
"^Praeludium" z A/G/ Ac EA | z B/A/ Bd EB | c2 a2 z e | d2 g2 z g | a2 e2 z e | ea/g/ af ce | %6
 d2 a2 z d | db/a/ bg db | c2 z/ e/f/g/ a/f/=d/f/ | B2- B/=d/e/f/ g/e/c/e/ | %10
 A/B/G/B/ A/c/=d/e/ f/d/B/d/ | G/A/F/A/ G/B/c/=d/ e/c/A/c/ | F/e/=d/e/ A/e/d/e/ F/e/d/e/ | %13
 G/e/=d/e/ B/e/d/e/ G/e/d/e/ | A/e/d/e/ c/e/B/e/ A/e/G/e/ | F/e/G/e/ A/=d/e/f/ G/B/A/c/ | %16
 B/e/=d/c/ B/A/B/c/ G/4F/4G/4F/4G/4F/4E/ | E2 e2 z B | A2 =d2 z d | eE/=D/ EG B,E | z F/E/ FA B,F | %21
 GB/A/ Be GB | EG/F/ GB EG | C z z _g/f/ e/f/d/e/ | c/d/B/c/ A/B/_G/A/ F/G/E/F/ | Dd/c/ df Bd | %26
 Gc/B/ ce Ac | FB/A/ Bd GB | EA/G/ Ac FA | DB/A/ Bd GB | Ec/B/ ce Ac | Fd/c/ df Bd | GB EG A2- | %33
 A/G/A/B/ c/4B/4c/4B/4c/4B/4c/4B/4 c/4B/4c/4B/4A | Ae/d/ ec GB | %35
 B/4A/4B/4A/4B/4A/4B/4A/4 e2- e/_G/F/E/ | Dd/c/ dB FA | A/4G/4A/4G/4A/4G/4A/4G/4 d2- d/F/E/D/ | %38
 C/c/B/c/ A/c/G/c/ F/c/E/c/ | D/d/c/d/ B/d/A/d/ G/d/F/d/ | EB/4A/4G/ Ac FA | dA/4G/4F/ GB EG | %42
 cA A2 G2 | A6 |[M:4/4]"^Fuga" z8 | z8 | z8 | z8 | z2 Ae cAfd | e6 a2- | a2 g2 f4- | %51
 f/B/c/=d/ e2- ea _db | d2 c2 B4 | A4- A/A/B/c/ d2- | d/B/c/e/ a/g/a/b/ c'/b/a/g/ f/g/a/c'/ | %55
 b/a/g/f/ e/f/g/b/ a/g/f/e/ =d/e/f/a/ | g/f/=e/g/ f/e/f/g/ c f2 g/e/ | f/=e/f/g/ a4 g2- | %58
 g2 f4 =e2 | f2- f/e/d/c/ B/A/G/A/ B/d/c/B/ | =A/c/d/e/ f/e/d/c/ B/d/_g/f/ e/d/c/B/ | %61
 =A2 B/c/ d2 c/d/ e2- | e/c/d/f/ bf _ge ae | fd/f/ _gd ec fc | d4- d2 cf | =dB e4 d2 | e2 z2 z4 | %67
 z2 Ae cA_ge | f2 fg e2 ef | d2 db cd/B/ ca | B2 z/ e/f/g/ a2- a/g/f/a/ | g6- g/c/f- | %72
 f/e/d/f/ e4 d2- | d/c/B/d/ cf dB_ge | f2 af g2 bg | af d2- de cf | c2 B2- BA/G/ Ae | cAfd eG A2- | %78
 A2 G2 !fermata!A4 |] %79
V:2
 [A,CE]2 z4 | [G,B,E]2 z4 | z A,/G,/ A,C E,A, | z B,/A,/ B,D E,B, | z C/B,/ CE A,C | F,2 F2 z2 | %6
 z B,/A,/ B,D G,B, | E,2 E2 z2 | z A,/G,/ A,C F,A, | =D,G,/F,/ G,B, E,G, | C,F,/E,/ F,A, =D,F, | %11
 B,,E,/=D,/ E,G, C,E, | A,,F,/E,/ F,A, =D,F, | B,,G,/F,/ G,B, E,G, | C,A,/G,/ A,C F,A, | %15
 =D,F, B,,D, E,C, | G,,F,, G,,A,, B,,2 | z E,/=D,/ E,G, B,,E, | z F,/E,/ F,A, B,,F, | %19
 G,2 z E,/F,/ G,/F,/G,/E,/ | B,B,, z B,,/C,/ =D,/C,/D,/B,,/ | E,E,, z D/C/ B,/C/A,/B,/ | %22
 G,/A,/F,/G,/ E,/F,/D,/E,/ C,/D,/B,,/C,/ | A,,E/D/ EA CE | A,C/B,/ CE A,C | %25
 F,2- F,/A,/B,/C/ D/B,/G,/B,/ | E,2- E,/G,/A,/B,/ C/A,/F,/A,/ | %27
 D,/E,/C,/E,/ D,/F,/G,/A,/ B,/G,/E,/G,/ | C,/D,/B,,/D,/ C,/E,/F,/G,/ A,/F,/D,/F,/ | %29
 B,,/A,/G,/A,/ E,/A,/G,/A,/ B,,/A,/G,/A,/ | C,/A,/G,/A,/ E,/A,/G,/A,/ C,/A,/G,/A,/ | %31
 D,/A,/_G,/A,/ F,/A,/E,/A,/ D,/A,/C,/A,/ | B,,/D,/C,/E,/ D,/F,/E,/D,/ C,/E,/D,/F,/ | %33
 E,F,/D,/ E,D, E,E,, | A,,2 A,2 z2 | z F,/E,/ F,A, D,F, | B,,2 A,2 z2 | z E,/D,/ E,G, C,E, | %38
 A,,/A,/G,/A,/ F,/A,/E,/A,/ D,/A,/C,/A,/ | B,,/B,/A,/B,/ G,/B,/F,/B,/ E,/B,/D,/B,/ | %40
 C,C z F,/G,/ A,/G,/A,/F,/ | B,B,, z E,/F,/ G,/F,/G,/E,/ | A,D, E,D, E,E,, | A,,6 | %44
[M:4/4] z2[I:staff -1] A,E CA,FD | E2- E/D/C/D/ E/F/G/E/ A/B/c/B/ | A/G/F/A/ G4 F2- | %47
 F/E/=D/F/ E2- E_D/C/ D/F/B/A/ | G/F/E/D/[I:staff +1] C/B,/C/D/[I:staff -1] E2[I:staff +1] A,2 | %49
 G,2 A,/B,/C B,>B, A,C | F, z z2 z4 | E,2- E,/E,/F,/G,/ A,/B,/C/B,/ A,/G,/F,/A,/ | %52
 G,E, z/ A,,/B,,/C,/ D,/E,/F,/E,/ D,/C,/B,,/D,/ | z2 A,E CA,FD | E2 E4 D2- | D2 C4 B,2- | %56
 B,2 A,G,- G,/B,/A,/G,/ F,/=E,/F,/G,/ | A,/B,/A,/G,/ F, z z4 | z8 | z8 | z2 B,F DB,_GE | %61
 F2 B,4 =A,/B,/C/A,/ | F,B,/C/ D4 C2- | C2 B,4 =A,2 | %64
 B,/E/D/C/ B,/A,/G,/F,/ E,/D/C/B,/ A,/G,/F,/G,/ | A,/C/B,/A,/ G,/F,/E,/D,/ C,A,B,B,, | %66
 E,2- E,/F,/G,/A,/ B,/C/D/C/ B,/A,/G,/B,/ | A,/E,/F,/G,/ A,/B,/C/D/ E/F/_G/F/ E/D/C/E/ | %68
 D/E/F/E/ D/C/B,/D/ C/D/E/D/ C/B,/=A,/C/ | B,/C/D/C/ B,/A,/G,/B,/ A,/B,/A,/G,/ F,/E,/F,/D,/ | %70
 E,/D,/C,/B,,/ A,, z z4 | z2 G,C A,F,=D=B, | C/E,/F,/G,/ A,/B,/C/B,/ A,/G,/F,/G,/ A,/G,/F,/E,/ | %73
 F,/E,/D,/F,/ D, z z4 |[I:staff -1] A2[I:staff +1] z2[I:staff -1] B2[I:staff +1] z2 | %75
[I:staff -1] c[I:staff +1] z z2 z[I:staff -1] G AF | E2 D2 C2[I:staff +1] z[I:staff -1] E | %77
 E[I:staff +1] z z[I:staff -1] F E[I:staff +1] z z[I:staff -1] B, | B,2[I:staff +1] E,2 E,4 |] %79
V:3
 x6 | x6 | z2 [ce]2 z c | B2 z2 z [Bd] | [Ae]2 z2 z B | A2 z2 z2 | B2 z2 z A | G2 z2 z [Gd] | %8
 A2 z4 | x6 | x6 | x6 | x6 | x6 | x6 | x6 | z4 E2 | E2 [GB]2 z G | F2 z2 z [FA] | [EGB] z z4 | x6 | %21
 x6 | x6 | x6 | x6 | x6 | x6 | x6 | x6 | x6 | x6 | x6 | x6 | z2 G4 | A2 z4 | F2 z4 | x6 | E2 z4 | %38
 x6 | x6 | x6 | x6 | z [DF] [B,E]4 | [CE]6 |[M:4/4] x8 | x8 | x8 | x8 | x8 | z2 EA GEcA | %50
 B2- B/[I:staff +1]E/[I:staff -1]F/G/ A/B/c/B/ A/G/F/A/ | G4[I:staff +1] F4 | %52
[I:staff -1] z/ E/F/G/ A4 G2 | AG/F/ E/D/C/D/ E z z2 | A z z2 z4 | x8 | z2 Fc AFdB | %57
 c=d/=e/ fc _dB_eB | cAdA B/c/d/c/ B/A/G/B/ | A2 z2 z4 | x8 | z2 FB _GEc=A | %62
 B2 z/ F/_G/A/ B/A/G/F/ E/F/G/B/ | A/_G/F/E/ D/E/F/A/ G/F/E/D/ C/D/E/G/ | F2 FB GE- EA | %65
 F=D z G A/B/c/B/ A/G/F/A/ | G/A/B/G/ EB GEdB | c z z2 z2 ce- | eA Bd- dG =Ac- | cF B4 A2- | %70
 A/G/A/B/ c2- c/d/e/c/ d2- | d/c/B/d/ c2- c/B/A/G/ A>A | G z EA FDBG | A2 z2 z2 z c | %74
 ed z =d fe z =e | f z z B GB cA | A3 G F2 z B | A z z B z z z F | B,/C/D/F/ E/D/C/D/ C4 |] %79
V:4
 x6 | x6 | x6 | x6 | x6 | x6 | x6 | x6 | x6 | x6 | x6 | x6 | x6 | x6 | x6 | x6 | x6 | x6 | x6 | %19
 x6 | x6 | x6 | x6 | x6 | x6 | x6 | x6 | x6 | x6 | x6 | x6 | x6 | x6 | x6 | x6 | x6 | x6 | x6 | %38
 x6 | x6 | x6 | x6 | x6 | x6 |[M:4/4] x8 | z2 E,A, G,E,CA, | B,E, B,G, A,E, A,F, | %47
 G,2- G,/C,/D,/E,/ F,/G,/A,/F,/ B,/C/D/C/ | B,/A,/G,/B,/ A,2- A,/A,,/B,,/C,/ D,/E,/F,/E,/ | %49
 D,/C,/B,,/D,/ C,>=D, E,/F,/G,- G,/G,/F,/E,/ | =D,/B,,/C,/D,/ E,2- E,A, D,C | x8 | x8 | %53
 C,2- C,/D,/E,/C,/ F,2- F,/E,/F,/D,/ | A,/G,/A,/B,/ CG, A,F, B,F, | G,E, A,E, F,=D, G,D, | %56
 =E,C, =D,_E, F,2 B,,2 | F,2 z/ F,,/G,,/A,,/ B,,/A,,/G,,/F,,/ E,,/F,,/G,,/B,,/ | %58
 A,,/G,,/F,,/E,,/ D,,/E,,/F,,/A,,/ G,,B,, C,C,, | F,,/C,/=D,/=E,/ F,2- F,B, E,C | %60
 E,=A, D,2 _G,2 z G,/F,/ | E,/_G,/F,/E,/ D,/C,/B,,/D,/ E,/F,/G,/E,/ F,2 | B,,2 z2 z4 | x8 | x8 | %65
 x8 | x8 | x8 | x8 | x8 | z2 A,,E, C,A,,F,D, | E,2 =E,/B,/A,/G,/ F,4 | C,4 D,4 | %73
 A,,2- A,,/F,,/G,,/A,,/ B,,/C,/D,/E,/ D,/C,/B,,/A,,/ | %74
 D,/C,/D,/F,/ E,/=D,/C,/B,,/ E,/D,/E,/G,/ F,/=E,/D,/C,/ | %75
 F,/G,/A,/F,/ B,/A,/G,/F,/ E,/D,/C,/B,,/ A,,/B,,/C,/D,/ | E,/D,/C,/D,/ E,E,, F,,2 E,,/F,,/G,,/ z/ | %77
 A,,/B,,/C,/E,/ D,/C,/B,,/A,,/ G,,/F,,/E,,/D,,/ C,,/E,,/D,,/F,,/ | E,,4 !fermata!A,,4 |] %79

